X: 2
T: A Benim Mor Çiçeğim
C: Osman Pehlivan
O: Turkey
F: http://compmusic.upf.edu/node/140
N: suzinak--turku--oynak--a_benim--osman_pehlivan
N: makam= suzinak
N: form= turku
N: usul= oynak = 9/8
M: 9/8
L: 1/16
K: C _1/4B _7/8e ^f 
Q: 1/4=144
%%MIDI tuningsystem comma53
Bcd2 d2d3ced cBc4 | Bc dedc B3c B_7/8AAG G/A/B/c/d2  | 
w:  ARANAĞME  |   | 
Bcd2 d2d3ced cBc4 | Bc dedc B3c B_7/8AAG G4  | 
w:   |   | 
c2d2 d2d4e2 f2g4 | d2 e2f2 g3a feed dcB_7/8A  | \
w:  A  be nim  mor  çi çe ğim    |  Sen  dol dur  ben  *  i *  çe *  yim   SAZ  | 
c2d2 d2d4e2 f2g4 | 
w:  A  be nim  mor  çi çe ğim    | 
d2 e2f2 g3a feed d4  | e2c2 d2e3gfe dcB4 | \
w:  Sen  dol dur  ben  *  i *  çe *  yim    |  Ahd_ et tim  ye *  min  *  et *  tim    | 
G3_7/8AB2 c3d BAAG d4  | 
w:  Uğ ru na  ö *  le *  ce *  ğim    | 
e2c2 d2e3gfe dcB4 | G3_7/8AB2 c3d BAAG G4  | \
w:  Ahd_ et tim  ye *  min  *  et *  tim    |  Uğ ru na  ö *  le *  ce *  ğim    | 
Bcd2 d2d3ced cBc4 | 
w:  ARANAĞME  | 
Bc dedc B3c B_7/8AAG G/A/B/c/d2  | \
w:   | 
Bcd2 d2d3ced cBc4 | 
w:   | 
Bc dedc B3c B_7/8AAG G4  | c2d2 d2d4e2 f2g4 | \
w:   |  A  be nim  mor  çi çe ğim    | 
d2 e2f2 g3a feed dcB_7/8A  | 
w:  Sen  dol dur  ben  *  i *  çe *  yim   SAZ  | 
c2d2 d2d4e2 f2g4 | d2 e2f2 g3a feed d4  | \
w:  A  be nim  mor  çi çe ğim    |  Sen  dol dur  ben  *  i *  çe *  yim    | 
e2c2 d2e3gfe dcB4 | 
w:  Ahd_ et tim  ye *  min  *  et *  tim    | 
G3_7/8AB2 c3d BAAG d4  | e2c2 d2e3gfe dcB4 | \
w:  Uğ ru na  ö *  le *  ce *  ğim    |  Ahd_ et tim  ye *  min  *  et *  tim    | 
G3_7/8AB2 c3d BAAG G4  | 
w:  Uğ ru na  ö *  le *  ce *  ğim    | 
|


